X: 38596
T: Stone Outside Dan Murphy's Door, The
R: waltz
M: 3/4
K: Dmajor
FG|A2FE D2DC|C B,3B,2EF|G2ED C3B,|A,6(FG)|
A2FE D2DC|C B,3B,2EF|G2ED C2B,C|D6FF|E2EF G2GG|
G F3F2FF|F E2D B,2DF|E6FG|AA FE D3C|
CB, B,B,E2EF|G2ED C2B,C|D6 FG|A2FE D2DC|
C B,6F|G E2D C2B,B,|A,6FG|A2FE D2CC|
CB,B,B,E2EF|G2ED C2B,C|D6||

